<?xml version="1.0" encoding="UTF-8"?>
<map version="1.10" tiledversion="1.12.0" orientation="orthogonal" renderorder="right-down" compressionlevel="0" width="16" height="16" tilewidth="16" tileheight="16" infinite="0" nextlayerid="13" nextobjectid="7">
 <properties>
  <property name="DayTiles" value="Buildings 5 2 225 Buildings 5 3 257 Buildings 6 2 225 Buildings 6 3 257 Buildings 10 2 225 Buildings 10 3 257 Buildings 11 2 225 B uildings 11 3 257"/>
  <property name="NightTiles" value="Buildings 5 2 1222 Buildings 5 3 1254 Buildings 6 2 1222 Buildings 6 3 1254 Buildings 10 2 1222 Buildings 10 3 1254 Buildings 11 2 1222 Buildings 11 3 1254"/>
 </properties>
 <tileset firstgid="1" name="untitled tile sheet" tilewidth="16" tileheight="16" tilecount="2176" columns="32">
  <image source="townInterior.png" width="512" height="1088"/>
 </tileset>
 <tileset firstgid="2177" name="v15_TownInterior2" tilewidth="16" tileheight="16" tilecount="1312" columns="32">
  <image source="townInterior_2.png" width="512" height="656"/>
 </tileset>
 <layer id="1" name="Back" width="16" height="16">
  <data encoding="csv">
1,1,1,1,1,1,1,1,1,1,1,1,1,1,1,1,
1,1,1,1,1,1,1,1,1,1,1,1,1,1,1,1,
1,1,1,1,1,0,0,0,0,0,0,0,0,1,1,1,
1,1,1,1,1,0,0,0,0,0,0,0,0,1,1,1,
1,1,1,1,0,0,0,0,0,0,0,0,0,0,1,1,
1,1,1,2115,2115,2115,2147,2115,2147,2147,2147,2147,2147,2115,1,1,
1,1,1,2147,2147,2147,2147,2147,2147,2147,2146,2147,2147,2147,1,1,
1,1,1,2115,2147,2147,2147,2147,2147,2115,2147,2147,2147,2147,1,1,
1,1,1,2147,2147,2147,2147,2147,2147,2147,2147,2147,2147,2147,1,1,
1,1,1,2147,2147,2147,2147,2147,2147,2147,2147,2147,2147,2147,1,1,
1,1,1,2147,2147,2147,2147,2147,2115,2147,2147,2147,2147,2147,1,1,
1,1,1,2147,2147,2147,2147,2147,2147,2114,2115,2147,2147,2147,1,1,
1,1,1,2147,2147,2147,2147,2147,2115,2147,2147,2147,2147,2147,1,1,
1,1,1,1,1,1,1,1,2147,1,1,1,1,1,1,1,
1,1,1,1,1,1,1,1,2115,1,1,1,1,1,1,1,
1,1,1,1,1,1,1,1,2147,1,1,1,1,1,1,1
</data>
 </layer>
 <layer id="2" name="Back2" width="16" height="16">
  <properties>
   <property name="Draw" value="Back"/>
  </properties>
  <data encoding="csv">
0,0,0,0,0,0,0,0,0,0,0,0,0,0,0,0,
0,0,0,0,0,0,0,0,0,0,0,0,0,0,0,0,
0,0,0,2345,2345,2314,2314,2314,2314,2314,2314,2314,2314,2315,0,0,
0,0,2345,2345,2346,75,75,2346,2346,2346,75,75,2346,2347,0,0,
0,0,2346,2346,107,107,107,107,107,107,0,107,107,2346,0,0,
0,0,0,0,0,0,0,0,0,0,0,357,358,0,0,0,
0,0,0,0,0,0,0,0,0,0,0,387,388,0,0,0,
0,0,0,0,0,0,0,0,0,0,0,321,322,0,0,0,
0,0,0,0,0,0,0,1665,1666,1667,0,0,0,0,0,0,
0,0,0,0,0,0,0,1697,1698,1699,0,0,0,0,0,0,
0,0,0,0,0,0,0,0,0,0,0,0,0,0,0,0,
0,0,0,0,0,0,0,0,0,0,0,0,0,0,0,0,
0,0,0,0,197,0,0,0,0,0,0,0,0,0,0,0,
0,0,0,0,0,0,0,0,0,0,0,0,0,0,0,0,
0,0,0,0,0,0,0,0,0,0,0,0,0,0,0,0,
0,0,0,0,0,0,0,0,0,0,0,0,0,0,0,0
</data>
 </layer>
 <layer id="3" name="Buildings" width="16" height="16">
  <data encoding="csv">
0,0,0,0,0,0,0,0,0,0,0,0,0,0,0,0,
0,0,0,2,3,3,3,3,3,3,3,3,3,4,0,0,
0,0,33,2313,2314,257,257,0,0,0,257,257,0,44,37,0,
0,0,65,74,75,289,289,75,75,75,289,289,75,76,69,0,
0,0,65,106,528,529,530,487,488,370,107,325,326,108,69,0,
0,0,65,138,560,561,562,519,520,402,0,357,358,140,69,0,
0,0,65,0,0,0,0,0,0,0,0,0,0,0,69,0,
0,0,65,0,0,0,0,0,0,0,0,321,322,0,69,0,
0,0,65,0,0,0,0,0,0,0,0,0,0,0,69,0,
0,0,65,0,0,0,0,0,0,0,0,0,0,0,69,0,
0,0,65,0,0,0,0,0,0,0,0,0,0,0,69,0,
0,0,65,0,0,0,0,0,0,0,0,0,0,2243,69,0,
0,0,161,162,166,166,166,163,0,164,166,166,166,167,168,0,
0,0,0,0,0,0,0,65,0,69,0,0,0,0,0,0,
0,0,0,0,0,0,0,65,0,69,0,0,0,0,0,0,
0,0,0,0,0,0,0,65,0,69,0,0,0,0,0,0
</data>
 </layer>
 <layer id="4" name="Front" width="16" height="16">
  <data encoding="csv">
0,0,0,0,0,0,0,0,0,0,0,0,0,0,0,0,
0,0,0,2,0,0,0,0,0,0,0,0,3,4,0,0,
0,0,33,42,0,0,0,0,0,0,0,0,0,44,0,0,
0,0,65,0,0,0,0,0,0,0,0,0,0,0,0,0,
0,0,65,0,0,0,0,0,0,0,0,0,0,0,0,0,
0,0,65,0,0,0,0,0,0,0,0,355,356,0,0,0,
0,0,0,0,0,0,0,0,0,0,0,387,388,0,0,0,
0,0,0,0,0,0,0,0,0,0,0,0,0,0,0,0,
0,0,0,0,0,0,0,0,0,0,0,0,0,0,0,0,
0,0,0,0,0,0,0,0,0,0,0,0,0,2179,0,0,
0,0,0,0,0,0,0,0,0,0,0,0,0,2211,0,0,
0,0,0,0,0,0,0,0,0,0,0,0,0,0,0,0,
0,0,0,0,0,0,0,0,0,0,0,0,0,0,0,0,
0,0,0,0,0,0,0,0,0,0,0,0,0,0,0,0,
0,0,0,0,0,0,0,0,0,0,0,0,0,0,0,0,
0,0,0,0,0,0,0,0,0,0,0,0,0,0,0,0
</data>
 </layer>
 <layer id="5" name="Front2" width="16" height="16">
  <properties>
   <property name="Draw" value="Front"/>
  </properties>
  <data encoding="csv">
0,0,0,0,0,0,0,0,0,0,0,0,0,0,0,0,
0,0,0,0,0,0,0,0,0,0,0,0,0,0,0,0,
0,0,0,0,0,0,0,0,0,0,0,0,0,0,0,0,
0,0,0,0,0,0,0,0,0,0,0,0,0,0,0,0,
0,0,0,0,0,0,0,0,0,0,0,0,0,0,0,0,
0,0,0,0,0,0,0,0,0,0,0,0,0,0,0,0,
0,0,0,0,0,0,0,0,0,0,0,0,0,0,0,0,
0,0,0,0,0,0,0,0,0,0,0,0,0,0,0,0,
0,0,0,0,0,0,0,0,0,0,0,0,0,0,0,0,
0,0,0,0,0,0,0,0,0,0,0,0,0,0,0,0,
0,0,0,0,0,0,0,0,0,0,0,0,0,0,0,0,
0,0,0,0,0,0,0,0,0,0,0,0,0,0,0,0,
0,0,0,0,0,0,0,0,0,0,0,0,0,0,0,0,
0,0,0,0,0,0,0,0,0,0,0,0,0,0,0,0,
0,0,0,0,0,0,0,0,0,0,0,0,0,0,0,0,
0,0,0,0,0,0,0,0,0,0,0,0,0,0,0,0
</data>
 </layer>
 <layer id="6" name="Paths" width="16" height="16">
  <data encoding="csv">
0,0,0,0,0,0,0,0,0,0,0,0,0,0,0,0,
0,0,0,0,0,0,0,0,0,0,0,0,0,0,0,0,
0,0,0,0,0,0,0,0,0,0,0,0,0,0,0,0,
0,0,0,0,0,0,0,0,0,0,0,0,0,0,0,0,
0,0,0,0,0,0,0,0,0,0,0,0,0,0,0,0,
0,0,0,0,0,0,0,0,0,0,0,0,0,0,0,0,
0,0,0,0,0,0,0,0,0,0,0,0,0,0,0,0,
0,0,0,0,0,0,0,0,0,0,0,0,0,0,0,0,
0,0,0,0,0,0,0,0,0,0,0,0,0,0,0,0,
0,0,0,0,0,0,0,0,0,0,0,0,0,0,0,0,
0,0,0,0,0,0,0,0,0,0,0,0,0,0,0,0,
0,0,0,0,0,0,0,0,0,0,0,0,0,0,0,0,
0,0,0,0,0,0,0,0,0,0,0,0,0,0,0,0,
0,0,0,0,0,0,0,0,0,0,0,0,0,0,0,0,
0,0,0,0,0,0,0,0,0,0,0,0,0,0,0,0,
0,0,0,0,0,0,0,0,0,0,0,0,0,0,0,0
</data>
 </layer>
 <objectgroup id="7" name="Back"/>
 <objectgroup id="8" name="Back2"/>
 <objectgroup id="9" name="Buildings"/>
 <objectgroup id="10" name="Front"/>
 <objectgroup id="11" name="Front2"/>
 <objectgroup id="12" name="Paths"/>
</map>
