<?xml version="1.0" encoding="UTF-8"?>
<map version="1.10" tiledversion="1.12.0" orientation="orthogonal" renderorder="right-down" compressionlevel="0" width="16" height="16" tilewidth="16" tileheight="16" infinite="0" nextlayerid="13" nextobjectid="7">
 <properties>
  <property name="DayTiles" value="Front 4 2 225 Buildings 4 3 257 Buildings 12 2 225 Buildings 12 3 257"/>
  <property name="NightTiles" value="Buildings 4 2 1222 Buildings 4 3 1254 Buildings 12 2 1222 Buildings 12 3 1254"/>
 </properties>
 <tileset firstgid="1" name="untitled tile sheet" tilewidth="16" tileheight="16" tilecount="2176" columns="32">
  <image source="townInterior.png" width="512" height="1088"/>
 </tileset>
 <tileset firstgid="2177" name="v15_TownInterior2" tilewidth="16" tileheight="16" tilecount="1312" columns="32">
  <image source="townInterior_2.png" width="512" height="656"/>
 </tileset>
 <tileset firstgid="3489" source="furniture_3.tsx"/>
 <tileset firstgid="3840" source="LeeSonDonDorFix.tsx"/>
 <layer id="1" name="Back" width="16" height="16">
  <data encoding="csv">
1,1,1,1,1,1,1,1,1,1,1,1,1,1,1,1,
1,1,1,1,1,1,1,1,1,1,1,1,1,1,1,1,
1,1,1,1,1,226,269,1,1,1,1,1,1,1,1,1,
1,1,1,1,86,86,86,1,1,1,1,1,1,1,1,1,
1,1,1,1,118,346,1,2114,2114,1,1,325,326,1,1,1,
1,1,1,2114,2114,2114,2147,2147,2115,2114,2114,2146,2147,2147,1,1,
1,1,1,2114,2115,2146,2146,2146,2146,2146,2146,455,456,2146,1,1,
1,1,1,2114,2115,2147,2114,2146,2147,2147,2146,455,456,2146,1,1,
1,1,1,2114,2147,2147,2147,2146,2114,2146,2146,2146,2147,2114,1,1,
1,1,1,2114,2147,2114,2147,2147,2147,2147,2147,2147,2147,2146,1,1,
1,1,1,2146,2147,2147,2147,2146,2147,2147,2115,2146,2147,2147,1,1,
1,1,1,2114,2147,2147,2147,2146,2147,2147,2114,2147,2147,2147,1,1,
1,1,1,2147,2147,2147,2147,2147,2147,2147,2147,2147,2147,2147,1,1,
1,1,1,1,1,1,1,1,2147,1,1,1,1,1,1,1,
1,1,1,1,1,1,1,1,2115,1,1,1,1,1,1,1,
1,1,1,1,1,1,1,1,2147,1,1,1,1,1,1,1
</data>
 </layer>
 <layer id="2" name="Back2" width="16" height="16">
  <properties>
   <property name="Draw" value="Back"/>
  </properties>
  <data encoding="csv">
0,0,0,0,0,0,0,0,0,0,0,0,0,0,0,0,
0,0,0,0,0,0,0,0,0,0,0,0,0,0,0,0,
0,0,0,39,46,40,40,0,0,0,40,0,46,44,0,0,
0,0,0,0,78,72,0,78,78,0,78,78,78,0,0,0,
0,0,0,0,110,110,110,110,110,110,110,110,110,0,0,0,
0,0,0,0,421,422,2147,2147,2147,0,0,0,2147,0,0,0,
0,0,0,0,455,456,2114,2114,2114,2146,2146,2147,2147,0,0,0,
0,0,0,0,0,2147,2114,2147,2115,2146,2146,2147,2147,2147,0,0,
0,0,0,0,0,2147,2147,2147,2147,2146,2146,0,0,2147,0,0,
0,0,0,0,0,2146,2146,2146,2147,2146,2146,0,2147,2147,0,0,
0,0,0,0,2147,2147,2147,0,0,2146,2147,2147,2147,0,0,0,
0,0,0,0,2147,2147,2147,0,0,0,0,0,0,0,0,0,
0,0,0,0,2147,2147,2147,0,0,0,0,0,496,0,0,0,
0,0,0,0,0,0,0,0,0,0,0,0,0,0,0,0,
0,0,0,0,0,0,0,0,0,0,0,0,0,0,0,0,
0,0,0,0,0,0,0,0,0,0,0,0,0,0,0,0
</data>
 </layer>
 <layer id="3" name="Buildings" width="16" height="16">
  <data encoding="csv">
0,0,0,0,0,0,0,0,0,0,0,0,0,0,0,0,
0,0,0,2,3,3,3,3,3,3,3,3,3,4,0,0,
0,0,33,45,257,46,46,46,46,46,46,46,257,47,37,0,
0,0,65,77,289,78,78,1424,1425,78,3615,3616,289,79,69,0,
0,0,65,109,389,390,3584,0,3846,3847,3628,3629,550,111,69,0,
0,0,65,141,357,358,3597,0,3854,3855,3641,3642,582,143,69,0,
0,0,65,0,0,0,0,0,0,0,3844,3845,0,0,69,0,
0,0,65,0,323,324,0,0,0,0,3852,3853,0,0,69,0,
0,0,65,0,0,0,0,0,0,0,0,0,0,0,69,0,
0,0,65,0,0,0,0,0,0,0,0,3641,3642,0,69,0,
0,0,65,0,0,3639,3640,0,0,3850,3851,0,0,0,69,0,
0,0,65,364,0,0,0,0,0,0,0,0,464,0,69,0,
0,0,161,162,166,166,166,163,0,164,166,166,166,167,168,0,
0,0,0,0,0,0,0,65,0,69,0,0,0,0,0,0,
0,0,0,0,0,0,0,65,0,69,0,0,0,0,0,0,
0,0,0,0,0,0,0,65,0,69,0,0,0,0,0,0
</data>
 </layer>
 <layer id="4" name="Front" width="16" height="16">
  <data encoding="csv">
0,0,0,0,0,0,0,0,0,0,0,0,0,0,0,0,
0,0,0,2,0,0,0,0,0,0,0,0,0,0,0,0,
0,0,33,42,0,0,0,0,0,0,0,0,0,44,0,0,
0,0,65,0,0,0,0,0,0,0,0,0,0,0,0,0,
0,0,65,0,0,0,0,0,0,0,0,0,0,0,0,0,
0,0,65,0,423,424,0,0,0,0,0,0,0,0,0,0,
0,0,0,0,455,456,0,0,0,0,0,0,0,0,0,0,
0,0,0,0,0,0,0,0,0,0,0,3615,3616,0,0,0,
0,0,0,0,0,3613,3614,0,0,0,0,3628,3629,0,0,0,
0,0,0,0,0,3626,3627,0,0,0,0,0,0,0,0,0,
0,0,0,332,0,0,0,0,0,0,0,0,0,0,0,0,
0,0,0,0,0,0,0,0,0,0,0,0,0,0,0,0,
0,0,0,0,0,0,0,0,0,0,0,0,0,0,0,0,
0,0,0,0,0,0,0,0,0,0,0,0,0,0,0,0,
0,0,0,0,0,0,0,0,0,0,0,0,0,0,0,0,
0,0,0,0,0,0,0,0,0,0,0,0,0,0,0,0
</data>
 </layer>
 <layer id="5" name="Front2" width="16" height="16">
  <properties>
   <property name="Draw" value="Front"/>
  </properties>
  <data encoding="csv">
0,0,0,0,0,0,0,0,0,0,0,0,0,0,0,0,
0,0,0,0,0,0,0,0,0,0,0,0,0,0,0,0,
0,0,0,0,0,0,0,0,0,0,0,0,0,0,0,0,
0,0,0,0,0,0,0,0,0,0,0,0,0,0,0,0,
0,0,0,0,0,0,0,0,0,0,0,0,0,0,0,0,
0,0,0,0,0,0,0,0,0,0,0,0,0,0,0,0,
0,0,0,0,0,0,0,0,0,0,0,0,0,0,0,0,
0,0,0,0,0,0,0,0,0,0,0,0,0,0,0,0,
0,0,0,0,0,0,0,0,0,0,0,0,0,0,0,0,
0,0,0,0,0,0,0,0,0,0,0,0,0,0,0,0,
0,0,0,0,0,0,0,0,0,0,0,0,0,0,0,0,
0,0,0,0,0,0,0,0,0,0,0,0,0,0,0,0,
0,0,0,0,0,0,0,0,0,0,0,0,0,0,0,0,
0,0,0,0,0,0,0,0,0,0,0,0,0,0,0,0,
0,0,0,0,0,0,0,0,0,0,0,0,0,0,0,0,
0,0,0,0,0,0,0,0,0,0,0,0,0,0,0,0
</data>
 </layer>
 <layer id="6" name="Paths" width="16" height="16">
  <data encoding="csv">
0,0,0,0,0,0,0,0,0,0,0,0,0,0,0,0,
0,0,0,0,0,0,0,0,0,0,0,0,0,0,0,0,
0,0,0,0,0,0,0,0,0,0,0,0,0,0,0,0,
0,0,0,0,0,0,0,0,0,0,0,0,0,0,0,0,
0,0,0,0,0,0,0,0,0,0,0,0,0,0,0,0,
0,0,0,0,0,0,0,0,0,0,0,0,0,0,0,0,
0,0,0,0,0,0,0,0,0,0,0,0,0,0,0,0,
0,0,0,0,0,0,0,0,0,0,0,0,0,0,0,0,
0,0,0,0,0,0,0,0,0,0,0,0,0,0,0,0,
0,0,0,0,0,0,0,0,0,0,0,0,0,0,0,0,
0,0,0,0,0,0,0,0,0,0,0,0,0,0,0,0,
0,0,0,0,0,0,0,0,0,0,0,0,0,0,0,0,
0,0,0,0,0,0,0,0,0,0,0,0,0,0,0,0,
0,0,0,0,0,0,0,0,0,0,0,0,0,0,0,0,
0,0,0,0,0,0,0,0,0,0,0,0,0,0,0,0,
0,0,0,0,0,0,0,0,0,0,0,0,0,0,0,0
</data>
 </layer>
 <objectgroup id="7" name="Back"/>
 <objectgroup id="8" name="Back2"/>
 <objectgroup id="9" name="Buildings"/>
 <objectgroup id="10" name="Front"/>
 <objectgroup id="11" name="Front2"/>
 <objectgroup id="12" name="Paths"/>
</map>
