<?xml version="1.0" encoding="UTF-8"?>
<map version="1.10" tiledversion="1.12.0" orientation="orthogonal" renderorder="right-down" compressionlevel="0" width="16" height="16" tilewidth="16" tileheight="16" infinite="0" nextlayerid="13" nextobjectid="7">
 <properties>
  <property name="DayTiles" value="Front 5 2 256 Front 5 3 288 Front 7 2 256 Front 7 3 288 Front 9 2 480"/>
  <property name="NightTiles" value="Front 5 2 1253 Front 5 3 1285 Front 7 2 1253 Front 7 3 1285 Front 9 2 809"/>
 </properties>
 <tileset firstgid="1" name="untitled tile sheet" tilewidth="16" tileheight="16" tilecount="2176" columns="32">
  <image source="townInterior.png" width="512" height="1088"/>
 </tileset>
 <tileset firstgid="2177" name="v15_TownInterior2" tilewidth="16" tileheight="16" tilecount="1312" columns="32">
  <image source="townInterior_2.png" width="512" height="656"/>
 </tileset>
 <layer id="1" name="Back" width="16" height="16">
  <properties>
   <property name="DayTiles" value="Buildings 6 2 225 Buildings 6 3 257 Buildings 10 2 225 Buildings 10 3 257"/>
  </properties>
  <data encoding="csv">
1,1,1,1,1,1,1,1,1,1,1,1,1,1,1,1,
1,1,1,1,1,1,1,1,1,1,1,1,1,1,1,1,
1,1,1,1,1,226,269,206,206,1,1,1,1,1,1,1,
1,1,1,1,1,258,1,206,206,1,1,1,1,1,1,1,
1,1,1,1,1,113,113,1,2115,1,1,1,1,1,1,1,
1,1,1,2115,2115,2115,2147,2115,2147,2115,2115,2115,2115,2115,1,1,
1,1,1,2147,2147,2147,2147,1661,1662,1663,1664,2147,2147,2147,1,1,
1,1,1,2115,2115,2147,2146,1693,1694,1695,1696,2115,2115,2115,1,1,
1,1,1286,2147,2147,2147,2146,1725,1726,1727,1728,2147,2147,2146,1,1,
1,1,1,2115,2115,2115,2114,1757,1758,1759,1760,2114,2115,2115,1,1,
1,1,1,2147,2147,2146,2146,1789,1790,1791,1792,2146,2147,2147,1,1,
1,1,1,2115,2147,2147,2114,2115,2147,2114,2115,2147,2114,2115,1,1,
1,1,1,2147,2147,2147,2147,2147,2115,2147,2147,2147,2147,2147,1,1,
1,1,1,1,1,1,1,1,2147,1,1,1,1,1,1,1,
1,1,1,1,1,1,1,1,2115,1,1,1,1,1,1,1,
1,1,1,1,1,1,1,1,2147,1,1,1,1,1,1,1
</data>
 </layer>
 <layer id="2" name="Back2" width="16" height="16">
  <properties>
   <property name="Draw" value="Back"/>
  </properties>
  <data encoding="csv">
0,0,0,0,0,0,0,0,0,0,0,0,0,0,0,0,
0,0,0,0,0,0,0,0,0,0,0,0,0,0,0,0,
0,0,0,205,206,206,206,206,206,206,206,206,206,207,0,0,
0,0,0,205,206,206,206,206,206,206,206,206,206,207,0,0,
0,0,0,205,113,680,681,107,107,107,104,113,113,207,0,0,
0,0,0,48,0,0,0,0,0,0,0,357,358,146,0,0,
0,0,0,0,0,554,0,0,0,0,0,0,0,0,0,0,
0,0,0,0,0,0,0,0,0,0,0,0,0,0,0,0,
0,0,0,0,0,0,0,0,0,0,0,0,0,0,0,0,
0,0,0,0,0,0,0,0,0,0,0,0,0,0,0,0,
0,0,0,0,0,0,0,0,0,0,0,0,0,0,0,0,
0,0,0,0,0,0,0,0,0,0,0,0,464,0,0,0,
0,0,0,0,0,0,0,0,0,0,0,0,496,0,0,0,
0,0,0,0,0,0,0,0,0,0,0,0,0,0,0,0,
0,0,0,0,0,0,0,0,0,0,0,0,0,0,0,0,
0,0,0,0,0,0,0,0,0,0,0,0,0,0,0,0
</data>
 </layer>
 <layer id="3" name="Buildings" width="16" height="16">
  <data encoding="csv">
0,0,0,0,0,0,0,0,0,0,0,0,0,0,0,0,
0,0,0,2,3,3,3,3,3,3,3,3,3,4,0,0,
0,0,33,0,0,0,0,206,206,206,0,0,0,44,37,0,
0,0,65,80,81,81,81,81,81,81,81,81,81,82,69,0,
0,0,65,112,332,876,675,113,113,113,113,325,326,114,69,0,
0,0,65,144,364,712,713,0,0,0,0,0,0,146,69,0,
0,0,65,0,0,0,0,0,0,0,0,0,0,0,69,0,
0,0,65,0,0,0,0,0,0,0,0,321,322,0,69,0,
0,0,65,1975,0,0,0,0,0,0,0,0,0,0,69,0,
0,0,65,0,0,0,0,0,0,0,0,0,0,503,69,0,
0,0,65,0,0,0,0,0,0,0,0,0,0,535,69,0,
0,0,65,0,0,0,0,0,0,0,0,0,464,0,69,0,
0,0,161,162,166,166,166,163,0,164,166,166,197,167,168,0,
0,0,0,0,0,0,0,65,0,69,0,0,0,0,0,0,
0,0,0,0,0,0,0,65,0,69,0,0,0,0,0,0,
0,0,0,0,0,0,0,65,0,69,0,0,0,0,0,0
</data>
 </layer>
 <layer id="4" name="Front" width="16" height="16">
  <data encoding="csv">
0,0,0,0,0,0,0,0,0,0,0,0,0,0,0,0,
0,0,0,2,0,0,0,0,0,0,0,0,3,4,0,0,
0,0,33,42,0,257,0,257,0,481,0,0,0,44,0,0,
0,0,65,0,0,289,0,289,0,0,0,0,0,0,0,0,
0,0,65,0,0,0,0,0,0,0,0,0,0,0,0,0,
0,0,65,0,0,0,0,0,0,0,0,419,420,0,0,0,
0,0,0,0,0,0,0,0,0,0,0,451,452,0,0,0,
0,0,0,0,0,0,0,0,0,0,0,0,0,0,0,0,
0,0,0,0,0,0,0,0,0,0,0,0,0,0,0,0,
0,0,0,0,0,0,0,0,0,0,0,0,0,0,0,0,
0,0,0,0,0,0,0,0,0,0,0,0,0,0,0,0,
0,0,0,0,0,0,0,0,0,0,0,0,0,0,0,0,
0,0,0,0,0,0,0,0,0,0,0,0,0,0,0,0,
0,0,0,0,0,0,0,0,0,0,0,0,0,0,0,0,
0,0,0,0,0,0,0,0,0,0,0,0,0,0,0,0,
0,0,0,0,0,0,0,0,0,0,0,0,0,0,0,0
</data>
 </layer>
 <layer id="5" name="Front2" width="16" height="16">
  <properties>
   <property name="Draw" value="Front"/>
  </properties>
  <data encoding="csv">
0,0,0,0,0,0,0,0,0,0,0,0,0,0,0,0,
0,0,0,0,0,0,0,0,0,0,0,0,0,0,0,0,
0,0,0,0,0,0,0,0,0,0,0,0,0,0,0,0,
0,0,0,0,0,0,0,0,0,0,0,0,0,0,0,0,
0,0,0,0,0,0,0,0,0,0,0,0,0,0,0,0,
0,0,0,0,0,0,0,0,0,0,0,0,0,0,0,0,
0,0,0,0,0,0,0,0,0,0,0,0,0,0,0,0,
0,0,0,0,0,0,0,0,0,0,0,0,0,0,0,0,
0,0,0,0,0,0,0,0,0,0,0,0,0,0,0,0,
0,0,0,0,0,0,0,0,0,0,0,0,0,0,0,0,
0,0,0,0,0,0,0,0,0,0,0,0,0,0,0,0,
0,0,0,0,0,0,0,0,0,0,0,0,0,0,0,0,
0,0,0,0,0,0,0,0,0,0,0,0,0,0,0,0,
0,0,0,0,0,0,0,0,0,0,0,0,0,0,0,0,
0,0,0,0,0,0,0,0,0,0,0,0,0,0,0,0,
0,0,0,0,0,0,0,0,0,0,0,0,0,0,0,0
</data>
 </layer>
 <layer id="6" name="Paths" width="16" height="16">
  <data encoding="csv">
0,0,0,0,0,0,0,0,0,0,0,0,0,0,0,0,
0,0,0,0,0,0,0,0,0,0,0,0,0,0,0,0,
0,0,0,0,0,0,0,0,0,0,0,0,0,0,0,0,
0,0,0,0,0,0,0,0,0,0,0,0,0,0,0,0,
0,0,0,0,0,0,0,0,0,0,0,0,0,0,0,0,
0,0,0,0,0,0,0,0,0,0,0,0,0,0,0,0,
0,0,0,0,0,0,0,0,0,0,0,0,0,0,0,0,
0,0,0,0,0,0,0,0,0,0,0,0,0,0,0,0,
0,0,0,0,0,0,0,0,0,0,0,0,0,0,0,0,
0,0,0,0,0,0,0,0,0,0,0,0,0,0,0,0,
0,0,0,0,0,0,0,0,0,0,0,0,0,0,0,0,
0,0,0,0,0,0,0,0,0,0,0,0,0,0,0,0,
0,0,0,0,0,0,0,0,0,0,0,0,0,0,0,0,
0,0,0,0,0,0,0,0,0,0,0,0,0,0,0,0,
0,0,0,0,0,0,0,0,0,0,0,0,0,0,0,0,
0,0,0,0,0,0,0,0,0,0,0,0,0,0,0,0
</data>
 </layer>
 <objectgroup id="7" name="Back"/>
 <objectgroup id="8" name="Back2"/>
 <objectgroup id="9" name="Buildings"/>
 <objectgroup id="10" name="Front"/>
 <objectgroup id="11" name="Front2"/>
 <objectgroup id="12" name="Paths"/>
</map>
