<?xml version="1.0" encoding="UTF-8"?>
<map version="1.10" tiledversion="1.12.0" orientation="orthogonal" renderorder="right-down" compressionlevel="0" width="16" height="16" tilewidth="16" tileheight="16" infinite="0" nextlayerid="13" nextobjectid="7">
 <properties>
  <property name="DayTiles" value="Front 4 2 225 Buildings 4 3 257 Buildings 12 2 225 Buildings 12 3 257"/>
  <property name="NightTiles" value="Buildings 4 2 1222 Buildings 4 2 1254 Buildings 12 2 1222 Buildings 12 3 1254"/>
 </properties>
 <tileset firstgid="1" name="untitled tile sheet" tilewidth="16" tileheight="16" tilecount="2176" columns="32">
  <image source="townInterior.png" width="512" height="1088"/>
 </tileset>
 <tileset firstgid="2177" name="v15_TownInterior2" tilewidth="16" tileheight="16" tilecount="1312" columns="32">
  <image source="townInterior_2.png" width="512" height="656"/>
 </tileset>
 <layer id="1" name="Back" width="16" height="16">
  <data encoding="csv">
1,1,1,1,1,1,1,1,1,1,1,1,1,1,1,1,
1,1,1,1,1,1,1,1,1,1,1,1,1,1,1,1,
1,1,1,1,1,226,269,1,1,1,1,1,1,1,1,1,
1,1,1,1,86,86,86,1,1,1,1,1,1,1,1,1,
1,1,1,1,118,346,1,2114,2114,1,1,325,326,1,1,1,
1,1,1,2114,2114,2114,2147,2147,2115,2114,2114,2146,2147,2147,1,1,
1,1,1,2114,2115,2146,2146,2146,2146,2146,2146,2147,2115,2146,1,1,
1,1,1,2114,2115,2147,2114,2146,2147,2147,2146,2146,2115,2146,1,1,
1,1,1,2114,2147,2147,2147,2146,2114,2146,2146,2146,2147,2114,1,1,
1,1,1,2114,2147,2114,2147,2147,2147,2147,2147,2147,2147,2146,1,1,
1,1,1,2146,2147,2147,2147,2146,2147,2147,2115,2146,2147,2147,1,1,
1,1,1,2114,2147,2147,2114,2146,2147,2147,2114,2147,2147,2147,1,1,
1,1,1,2147,2147,2147,2147,2147,2147,2147,2147,2147,2147,2147,1,1,
1,1,1,1,1,1,1,1,2147,1,1,1,1,1,1,1,
1,1,1,1,1,1,1,1,2115,1,1,1,1,1,1,1,
1,1,1,1,1,1,1,1,2147,1,1,1,1,1,1,1
</data>
 </layer>
 <layer id="2" name="Back2" width="16" height="16">
  <properties>
   <property name="Draw" value="Back"/>
  </properties>
  <data encoding="csv">
0,0,0,0,0,0,0,0,0,0,0,0,0,0,0,0,
0,0,0,0,0,0,0,0,0,0,0,0,0,0,0,0,
0,0,0,39,54,40,40,0,0,0,40,0,54,41,0,0,
0,0,0,0,0,72,0,86,86,0,86,0,86,0,0,0,
0,0,0,0,289,118,118,118,118,118,104,118,118,0,0,0,
0,0,0,0,0,378,379,648,649,0,0,357,358,0,0,0,
0,0,0,0,0,1531,1532,1533,1534,1535,1536,385,386,0,0,0,
0,0,0,0,0,1563,1564,1565,1566,1567,1568,0,0,0,0,0,
0,0,0,0,0,1595,1596,1597,1598,1599,1600,0,0,0,0,0,
0,0,0,0,0,1627,1628,1629,1630,1631,1632,0,0,0,0,0,
0,0,0,0,0,0,0,0,0,0,0,0,0,0,0,0,
0,0,0,0,716,1042,716,0,0,0,0,0,0,0,0,0,
0,0,0,0,1073,1074,1075,0,0,0,0,0,0,0,0,0,
0,0,0,0,0,0,0,0,0,0,0,0,0,0,0,0,
0,0,0,0,0,0,0,0,0,0,0,0,0,0,0,0,
0,0,0,0,0,0,0,0,0,0,0,0,0,0,0,0
</data>
 </layer>
 <layer id="3" name="Buildings" width="16" height="16">
  <data encoding="csv">
0,0,0,0,0,0,0,0,0,0,0,0,0,0,0,0,
0,0,0,2,3,3,3,3,3,3,3,3,3,4,0,0,
0,0,33,51,257,54,54,54,54,54,54,54,257,53,37,0,
0,0,65,83,289,86,86,1424,1425,86,176,86,289,85,69,0,
0,0,65,115,118,346,347,616,617,118,118,325,326,117,69,0,
0,0,65,147,0,378,379,648,649,0,0,357,358,149,69,0,
0,0,65,0,0,0,0,0,0,0,0,0,0,0,69,0,
0,0,65,0,0,0,0,0,0,0,0,321,322,0,69,0,
0,0,65,0,0,0,0,0,0,0,0,0,0,0,69,0,
0,0,65,0,0,0,0,0,0,0,0,0,0,0,69,0,
0,0,65,0,684,0,684,0,0,0,0,0,0,0,69,0,
0,0,65,0,0,0,0,0,0,0,0,0,0,0,69,0,
0,0,161,162,166,166,166,163,0,164,166,166,166,167,168,0,
0,0,0,0,0,0,0,65,0,69,0,0,0,0,0,0,
0,0,0,0,0,0,0,65,0,69,0,0,0,0,0,0,
0,0,0,0,0,0,0,65,0,69,0,0,0,0,0,0
</data>
 </layer>
 <layer id="4" name="Front" width="16" height="16">
  <data encoding="csv">
0,0,0,0,0,0,0,0,0,0,0,0,0,0,0,0,
0,0,0,2,0,0,0,0,0,0,0,0,3,4,0,0,
0,0,33,42,0,0,0,0,0,0,0,0,0,44,0,0,
0,0,65,0,0,0,0,0,0,0,0,0,0,0,0,0,
0,0,65,0,0,0,0,0,0,0,0,0,0,0,0,0,
0,0,65,0,0,0,0,0,0,0,0,353,354,0,0,0,
0,0,0,0,0,0,0,0,0,0,0,385,386,0,0,0,
0,0,0,0,0,0,0,0,0,0,0,0,0,0,0,0,
0,0,0,0,0,0,0,0,0,0,0,0,0,0,0,0,
0,0,0,0,0,0,0,0,0,0,0,0,0,0,0,0,
0,0,0,0,0,0,0,0,0,0,0,0,0,0,0,0,
0,0,0,0,1041,1042,1043,0,0,0,0,0,0,0,0,0,
0,0,0,0,0,0,0,0,0,0,0,0,0,0,0,0,
0,0,0,0,0,0,0,0,0,0,0,0,0,0,0,0,
0,0,0,0,0,0,0,0,0,0,0,0,0,0,0,0,
0,0,0,0,0,0,0,0,0,0,0,0,0,0,0,0
</data>
 </layer>
 <layer id="5" name="Front2" width="16" height="16">
  <properties>
   <property name="Draw" value="Front"/>
  </properties>
  <data encoding="csv">
0,0,0,0,0,0,0,0,0,0,0,0,0,0,0,0,
0,0,0,0,0,0,0,0,0,0,0,0,0,0,0,0,
0,0,0,0,0,0,0,0,0,0,0,0,0,0,0,0,
0,0,0,0,0,0,0,0,0,0,0,0,0,0,0,0,
0,0,0,0,0,0,0,0,0,0,0,0,0,0,0,0,
0,0,0,0,0,0,0,0,0,0,0,0,0,0,0,0,
0,0,0,0,0,0,0,0,0,0,0,0,0,0,0,0,
0,0,0,0,0,0,0,0,0,0,0,0,0,0,0,0,
0,0,0,0,0,0,0,0,0,0,0,0,0,0,0,0,
0,0,0,0,0,0,0,0,0,0,0,0,0,0,0,0,
0,0,0,0,0,0,0,0,0,0,0,0,0,0,0,0,
0,0,0,0,0,0,0,0,0,0,0,0,0,0,0,0,
0,0,0,0,0,0,0,0,0,0,0,0,0,0,0,0,
0,0,0,0,0,0,0,0,0,0,0,0,0,0,0,0,
0,0,0,0,0,0,0,0,0,0,0,0,0,0,0,0,
0,0,0,0,0,0,0,0,0,0,0,0,0,0,0,0
</data>
 </layer>
 <layer id="6" name="Paths" width="16" height="16">
  <data encoding="csv">
0,0,0,0,0,0,0,0,0,0,0,0,0,0,0,0,
0,0,0,0,0,0,0,0,0,0,0,0,0,0,0,0,
0,0,0,0,0,0,0,0,0,0,0,0,0,0,0,0,
0,0,0,0,0,0,0,0,0,0,0,0,0,0,0,0,
0,0,0,0,0,0,0,0,0,0,0,0,0,0,0,0,
0,0,0,0,0,0,0,0,0,0,0,0,0,0,0,0,
0,0,0,0,0,0,0,0,0,0,0,0,0,0,0,0,
0,0,0,0,0,0,0,0,0,0,0,0,0,0,0,0,
0,0,0,0,0,0,0,0,0,0,0,0,0,0,0,0,
0,0,0,0,0,0,0,0,0,0,0,0,0,0,0,0,
0,0,0,0,0,0,0,0,0,0,0,0,0,0,0,0,
0,0,0,0,0,0,0,0,0,0,0,0,0,0,0,0,
0,0,0,0,0,0,0,0,0,0,0,0,0,0,0,0,
0,0,0,0,0,0,0,0,0,0,0,0,0,0,0,0,
0,0,0,0,0,0,0,0,0,0,0,0,0,0,0,0,
0,0,0,0,0,0,0,0,0,0,0,0,0,0,0,0
</data>
 </layer>
 <objectgroup id="7" name="Back"/>
 <objectgroup id="8" name="Back2"/>
 <objectgroup id="9" name="Buildings"/>
 <objectgroup id="10" name="Front"/>
 <objectgroup id="11" name="Front2"/>
 <objectgroup id="12" name="Paths"/>
</map>
