<?xml version="1.0" encoding="UTF-8"?>
<map version="1.10" tiledversion="1.12.0" orientation="orthogonal" renderorder="right-down" compressionlevel="0" width="16" height="16" tilewidth="16" tileheight="16" infinite="0" nextlayerid="13" nextobjectid="7">
 <properties>
  <property name="DayTiles" value="Front 6 2 225 Buildings 6 3 257 Buildings 10 2 225 Buildings 10 3 257"/>
  <property name="NightTiles" value="Buildings 6 2 1222 Buildings 6 2 1254 Buildings 10 2 1222 Buildings 10 3 1254"/>
 </properties>
 <tileset firstgid="1" name="untitled tile sheet" tilewidth="16" tileheight="16" tilecount="2176" columns="32">
  <image source="townInterior.png" width="512" height="1088"/>
 </tileset>
 <tileset firstgid="2177" name="v15_TownInterior2" tilewidth="16" tileheight="16" tilecount="1312" columns="32">
  <image source="townInterior_2.png" width="512" height="656"/>
 </tileset>
 <tileset firstgid="3489" source="furniture_3.tsx"/>

 <layer id="1" name="Back" width="16" height="16">
  <data encoding="csv">
1,1,1,1,1,1,1,1,1,1,1,1,1,1,1,1,
1,1,1,1,1,1,1,1,1,1,1,1,1,1,1,1,
1,1,1,1,0,0,0,0,0,0,0,0,0,44,1,1,
1,1,1,1,0,0,0,0,0,0,0,0,0,207,1,1,
1,1,1,1,107,346,1,2114,2114,1,1,325,326,1,1,1,
1,1,1,2147,2147,2147,2146,2146,2147,2147,2147,2147,2147,2147,1,1,
1,1,1,2147,2145,2147,2147,2146,2145,2147,2114,2113,2147,2147,1,1,
1,1,1,2147,2147,2147,2114,2146,2115,2147,2114,2145,2147,2147,1,1,
1,1,1,2147,2145,2147,2113,2146,2114,2114,2114,2147,2147,2147,1,1,
1,1,1,2147,2145,2146,2146,2115,2115,2146,2114,2115,2146,2147,1,1,
1,1,1,2147,2146,2114,2146,510,511,512,2114,2114,2114,2147,1,1,
1,1,1,2147,2147,2114,2146,542,543,544,2146,2147,2147,2147,1,1,
1,1,1,2147,2147,2147,2147,2147,2147,2147,2147,2147,2147,2147,1,1,
1,1,1,1,1,1,1,1,2147,1,1,1,1,1,1,1,
1,1,1,1,1,1,1,1,2115,1,1,1,1,1,1,1,
1,1,1,1,1,1,1,1,2147,1,1,1,1,1,1,1
</data>
 </layer>
 <layer id="2" name="Back2" width="16" height="16">
  <properties>
   <property name="Draw" value="Back"/>
  </properties>
  <data encoding="csv">
0,0,0,0,0,0,0,0,0,0,0,0,0,0,0,0,
0,0,0,0,0,0,0,0,0,0,0,0,0,0,0,0,
0,0,0,205,206,206,206,206,206,206,206,206,206,207,0,0,
0,0,0,205,206,206,206,75,75,75,206,206,206,76,0,0,
0,0,0,205,680,107,107,107,299,299,299,107,107,207,0,0,
0,0,0,0,0,0,0,0,0,0,0,421,422,140,0,0,
0,0,0,0,0,0,0,0,0,0,0,449,450,0,0,0,
0,0,0,0,0,0,0,0,0,0,0,0,0,0,0,0,
0,0,0,0,0,0,0,0,0,0,0,0,0,0,0,0,
0,0,0,0,0,0,0,0,0,0,0,0,0,0,0,0,
0,0,0,0,0,0,0,0,0,0,0,0,0,0,0,0,
0,0,0,0,0,0,0,0,0,0,0,0,0,0,0,0,
0,0,0,0,2147,2147,2147,0,0,0,0,0,496,0,0,0,
0,0,0,0,0,0,0,0,0,0,0,0,0,0,0,0,
0,0,0,0,0,0,0,0,0,0,0,0,0,0,0,0,
0,0,0,0,0,0,0,0,0,0,0,0,0,0,0,0
</data>
 </layer>
 <layer id="3" name="Buildings" width="16" height="16">
  <data encoding="csv">
0,0,0,0,0,0,0,0,0,0,0,0,0,0,0,0,
0,0,0,2,3,3,3,3,3,3,3,3,3,4,0,0,
0,0,33,42,0,0,0,226,226,226,0,0,0,44,37,0,
0,0,65,74,75,75,75,258,258,258,75,75,75,76,69,0,
0,0,65,106,675,778,464,107,107,107,107,389,390,108,69,0,
0,0,65,138,712,713,496,0,0,0,0,0,0,370,69,0,
0,0,65,0,554,0,0,0,0,0,0,0,0,402,69,0,
0,0,65,0,0,0,0,0,0,0,0,323,324,0,69,0,
0,0,65,0,0,0,0,0,0,0,0,0,0,0,69,0,
0,0,65,0,0,0,0,0,0,0,0,0,0,0,69,0,
0,0,65,0,0,0,0,0,0,0,0,0,0,0,69,0,
0,0,65,0,0,0,0,0,0,0,0,0,0,0,69,0,
0,0,161,162,166,166,166,163,0,164,166,166,166,167,168,0,
0,0,0,0,0,0,0,65,0,69,0,0,0,0,0,0,
0,0,0,0,0,0,0,65,0,69,0,0,0,0,0,0,
0,0,0,0,0,0,0,65,0,69,0,0,0,0,0,0
</data>
 </layer>
 <layer id="4" name="Front" width="16" height="16">
  <data encoding="csv">
0,0,0,0,0,0,0,0,0,0,0,0,0,0,0,0,
0,0,0,2,0,0,0,0,0,0,0,0,0,0,0,0,
0,0,33,42,0,0,0,0,0,0,0,0,0,44,0,0,
0,0,65,0,0,0,0,0,0,0,0,567,568,0,0,0,
0,0,65,0,0,0,0,0,0,0,0,0,0,0,0,0,
0,0,65,0,0,0,0,0,0,0,0,417,418,0,0,0,
0,0,0,0,0,0,0,0,0,0,0,449,450,0,0,0,
0,0,0,0,0,0,0,0,0,0,0,0,0,0,0,0,
0,0,0,0,0,0,0,510,511,512,0,0,0,0,0,0,
0,0,0,0,0,0,0,542,543,544,0,0,0,0,0,0,
0,0,0,0,0,0,0,2114,2147,2147,0,0,815,0,0,0,
0,0,0,0,0,0,0,2147,2147,2114,0,0,464,0,0,0,
0,0,0,0,0,0,0,0,0,0,0,0,0,0,0,0,
0,0,0,0,0,0,0,0,0,0,0,0,0,0,0,0,
0,0,0,0,0,0,0,0,0,0,0,0,0,0,0,0,
0,0,0,0,0,0,0,0,0,0,0,0,0,0,0,0
</data>
 </layer>
 <layer id="5" name="Front2" width="16" height="16">
  <properties>
   <property name="Draw" value="Front"/>
  </properties>
  <data encoding="csv">
0,0,0,0,0,0,0,0,0,0,0,0,0,0,0,0,
0,0,0,0,0,0,0,0,0,0,0,0,0,0,0,0,
0,0,0,0,0,0,0,0,0,0,0,0,0,0,0,0,
0,0,0,0,0,0,0,0,0,0,0,0,0,0,0,0,
0,0,0,0,0,0,0,0,0,0,0,0,0,0,0,0,
0,0,0,0,0,0,0,0,0,0,0,0,0,0,0,0,
0,0,0,0,0,0,0,0,0,0,0,0,0,0,0,0,
0,0,0,0,0,0,0,0,0,0,0,0,0,0,0,0,
0,0,0,0,0,0,0,0,0,0,0,0,0,0,0,0,
0,0,0,0,0,0,0,0,0,0,0,0,0,0,0,0,
0,0,0,0,0,0,0,0,0,0,0,0,0,0,0,0,
0,0,0,0,0,0,0,0,0,0,0,0,0,0,0,0,
0,0,0,0,0,0,0,0,0,0,0,0,0,0,0,0,
0,0,0,0,0,0,0,0,0,0,0,0,0,0,0,0,
0,0,0,0,0,0,0,0,0,0,0,0,0,0,0,0,
0,0,0,0,0,0,0,0,0,0,0,0,0,0,0,0
</data>
 </layer>
 <layer id="6" name="Paths" width="16" height="16">
  <data encoding="csv">
0,0,0,0,0,0,0,0,0,0,0,0,0,0,0,0,
0,0,0,0,0,0,0,0,0,0,0,0,0,0,0,0,
0,0,0,0,0,0,0,0,0,0,0,0,0,0,0,0,
0,0,0,0,0,0,0,0,0,0,0,0,0,0,0,0,
0,0,0,0,0,0,0,0,0,0,0,0,0,0,0,0,
0,0,0,0,0,0,0,0,0,0,0,0,0,0,0,0,
0,0,0,0,0,0,0,0,0,0,0,0,0,0,0,0,
0,0,0,0,0,0,0,0,0,0,0,0,0,0,0,0,
0,0,0,0,0,0,0,0,0,0,0,0,0,0,0,0,
0,0,0,0,0,0,0,0,0,0,0,0,0,0,0,0,
0,0,0,0,0,0,0,0,0,0,0,0,0,0,0,0,
0,0,0,0,0,0,0,0,0,0,0,0,0,0,0,0,
0,0,0,0,0,0,0,0,0,0,0,0,0,0,0,0,
0,0,0,0,0,0,0,0,0,0,0,0,0,0,0,0,
0,0,0,0,0,0,0,0,0,0,0,0,0,0,0,0,
0,0,0,0,0,0,0,0,0,0,0,0,0,0,0,0
</data>
 </layer>
 <objectgroup id="7" name="Back"/>
 <objectgroup id="8" name="Back2"/>
 <objectgroup id="9" name="Buildings"/>
 <objectgroup id="10" name="Front"/>
 <objectgroup id="11" name="Front2"/>
 <objectgroup id="12" name="Paths"/>
</map>
